X:3
T:Flowers of the Forrest [2], The
M:C
L:1/8
R:Air
Q:"Slow"
S:McGibbon - Scots Tunes, Book 1 (c. 1762)
Z:AK/Fiddler's Companion
K:D
A2 A>B (3ABd (3efg | {g}f2 ed B>d (3BAF | (EF/A/) A>B (3ABd (e>f/2g/4) | f2Te2{d/e/}d4 :|
|:T(=c2 c/)(e/d/c/) TB2 (3A/B/c/ | AfTe>d B>d (3BAF |T(=c2 c/)(e/d/c/) TB2 (3ABd | Af Te>d d4 |
T(=c2 c/)(e/d/c/) TB2 (3ABd | AfT(e>d) {d}B>d (3BAF | (EF/A/) A>B (3ABd (ef/g/) | f2 Te>d d4 :|
|: (fg/a/) a>b {b}a2 T(gf) | {g}f>a (3fed {A}B>d (3BAF | (fg/a/) a(d'/b/) {b}a2 T(gf) | (e/f/g/f/) Te>dTd3e |
(fg/a/) a>b Ta2 (gf) | {g}f>a (3fed {d}B>d (3BAF | (EF/A/) A>B (3ABd (e>f/2g/4) | f2 Te2 {d/e/} d4 :||

